X:25
T:Grisha The Black Cat
M:4/4
R:Reel
L:1/8
K:Edor
|:ed|"Em"~B3A GEDE|GABG "A"A2 BD| "Em"~E3 D EDBA|GE (3GAB "D"A2ed|
"Em"~B3A GEDE|GABG "A"A2 Be|"D"dBAF "Bm"D2 z2|"D"EGBd "Em"e2:|
|:"Em"gebg ageB|dega e2dA|"Bm"~B3A Bded|gegb"D"a2de|
"Em"gebg agde|"G"(3gbg (3age d2 Be|"D"dBAF "Bm"D2 z2|"D"EGBd "Em"e4:|

